X:1
T:God Hath Sent His Angels
T:God Hath Sent His Angels
T:James Cutler Dunn Parker, 1872
T:Phillips Brooks, 1877
T:Courtesy of the Cyber Hymnal™ Public Domain
T:Courtesy of the Cyber Hymnal™ Public Domain
C:James Cutler Dunn Parker, 1872
Z:Courtesy of the Cyber Hymnal™
Z:Public Domain
%%score ( 1 2 ) ( 3 4 )
L:1/8
M:4/4
K:C
V:1 treble 
V:2 treble 
V:3 bass 
V:4 bass 
V:1
 G3 E C2 E2 | (G2 c2) G4 | [EG]3 [Ec] [Ge]2 [Fd]2 | [Ec]8 | A3 E C2 E2 | (A2 c2) A4 | %6
w: 1.~God hath sent His|an- * gels|to the earth a-|gain,|Bring- ing joy- ful|tid- * ings|
w: 2.~In the dread- ful|de- * sert,|where the Lord was|tried,|There the faith- ful|an- * gels|
w: 3.~Yet the Christ they|hon- * or|is the same Christ|still|Who, in light and|dark- * ness,|
w: 4.~God has still His|an- * gels,|help- ing at His|word,|All His faith- ful|child- * ren,|
 [CE]3 [CA] [Ec]2 [DB]2 | [CA]8 | [CA]3 [CD] [CB]2 [CA]2 | ([B,G]2 [^A,E]2) [B,D]4 | %10
w: to the sons of|men;|They who first at|Christ- * mas|
w: ga- thered at His|side;|And when, in the|gar- * den,|
w: did His Fa- ther’s|will;|And the tomb, de-|sert- * ed,|
w: like their faith- ful|Lord;|Sooth- ing them in|sor- * row,|
 [CE]3 [D^F] [DG]2 [CE]2 | [B,D]8 | [CD]3 [Cc] [CB]2 [CA]2 | (G2 ^F2) [^A,E]4 | %14
w: thronged the heaven- ly|way,|Now be- side the|tomb * door|
w: grief and pain and|care|Bowed Him down with|an- * guish,|
w: shin- eth like the|sky,|Since He passed from|out * it,|
w: arm- ing them in|strife,|Open- ing wide the|tomb * doors,|
 [B,D]2 [B,G]2 [CA]3 [B,G] | [B,G]8 ||"^Refrain" G3 E (CD) (EF) | (G2 c2) G4 | %18
w: sit on Eas- ter|day.|||
w: they were with Him|there.|||
w: in- to vic- to-|ry.|||
w: lead- ing in- to|life.|||
 [EG]3 [Ec] [Ge]2 [Fd]2 | [Ec]8 | [Ge]3 [Ge] [Ed]2 [Ed]2 | [Fc]4 [FA]4 | [Ec]3 [CE] [CE]2 [B,D]2 | %23
w: |||||
w: |||||
w: |||||
w: |||||
 C8 |] %24
w: |
w: |
w: |
w: |
V:2
 G3 E C2 E2 | G2 c2 G4 | x8 | x8 | A3 E C2 E2 | A2 c2 A4 | x8 | x8 | x8 | x8 | x8 | x8 | x8 | %13
 B,4 x4 | x8 | x8 || G3 E x4 | G2 c2 G4 | x8 | x8 | x8 | x8 | x8 | C8 |] %24
V:3
 G,3 E, C,2 E,2 | G,2 C2 G,4 | [G,C]3 [G,C] [G,C]2 [G,B,]2 | [C,C]8 | A,3 E, C,2 E,2 | A,2 C2 A,4 | %6
w: ~ ~ ~ ~|~ ~ ~|~ ~ ~ ~|~|~ ~ ~ ~|~ ~ ~|
 [E,A,]3 [E,A,] [E,A,]2 [E,^G,]2 | [A,,A,]8 | [D,^F,]3 [D,F,] [D,F,]2 [D,F,]2 | [G,,G,]4 [G,,G,]4 | %10
w: ~ ~ ~ ~|~|~ ~ ~ ~|~ ~|
 [C,G,]3 [C,A,] [B,,G,]2 [C,G,]2 | [G,,G,]8 | [D,^F,]3 [D,F,] [D,F,]2 [^D,F,]2 | [E,G,]4 [^C,G,]4 | %14
w: ~ ~ ~ ~|~|~ ~ ~ ~|~ ~|
 [D,G,]2 [D,G,]2 [D,^F,]3 [G,,G,] | [G,,G,]8 || G,3 E, (C,D,) x2 | G,2 C2 G,4 | %18
w: ~ ~ ~ An-|gels,|sing His tri- *|umph as you|
 [G,C]3 [G,C] [G,C]2 [^G,B,]2 | [A,C]8 | [C,_B,]3 [C,B,] [C,B,]2 [C,B,]2 | [F,A,]4 [F,C]4 | %22
w: sang His birth, “Christ|the|Lord is ris- en,|peace, good-|
 [G,C]3 G, [G,,G,]2 (G,F,) | [C,E,]8 |] %24
w: will on earth!” * *||
V:4
 G,3 E, C,2 E,2 | (G,2 C2) G,4 | x8 | x8 | A,3 E, C,2 E,2 | (A,2 C2) A,4 | x8 | x8 | x8 | x8 | x8 | %11
 x8 | x8 | x8 | x8 | x8 || G,3 E, (E,F,) x2 | (G,2 C2) G,4 | x8 | x8 | x8 | x8 | x6 G,,2 | x8 |] %24

